packages/kaspersky-hexa-ui-icons/src/iconsSVGs/28x20/FlagCa.svg

<svg width="28" height="20" viewBox="0 0 28 20" fill="none" xmlns="http://www.w3.org/2000/svg">
<g clip-path="url(#clip0_5138_555)">
<path d="M0 2C0 0.895431 0.895431 0 2 0H26C27.1046 0 28 0.895431 28 2V18C28 19.1046 27.1046 20 26 20H2C0.895431 20 0 19.1046 0 18V2Z" fill="white"/>
<mask id="mask0_5138_555" style="mask-type:luminance" maskUnits="userSpaceOnUse" x="0" y="0" width="28" height="20">
<rect width="28" height="20" rx="2" fill="white"/>
</mask>
<g mask="url(#mask0_5138_555)">
<path d="M26 19.5V20H2V19.5H26ZM27.5 18V2C27.5 1.17157 26.8284 0.5 26 0.5H2C1.17157 0.5 0.5 1.17157 0.5 2V18C0.5 18.8284 1.17157 19.5 2 19.5V20C0.895431 20 0 19.1046 0 18V2C2.57702e-07 0.895431 0.895431 0 2 0H26C27.1046 0 28 0.895431 28 2V18C28 19.1046 27.1046 20 26 20V19.5C26.8284 19.5 27.5 18.8284 27.5 18Z" fill="#F5F5F5"/>
<rect x="20" width="8" height="20" fill="#FF3131"/>
<path fill-rule="evenodd" clip-rule="evenodd" d="M0 20H8V0H0V20Z" fill="#FF3131"/>
<path fill-rule="evenodd" clip-rule="evenodd" d="M16.1118 9.22154C15.8786 9.45474 15.4846 9.24386 15.5493 8.92046L16 6.66668L14.6667 7.33334L14 5.33334L13.3333 7.33334L12 6.66668L12.4508 8.92046C12.5154 9.24386 12.1214 9.45474 11.8882 9.22154L11.569 8.90238C11.4389 8.7722 11.2278 8.7722 11.0976 8.90238L10.6667 9.33334L9.33334 8.66668L10 10L9.56905 10.431C9.43887 10.5611 9.43887 10.7722 9.56905 10.9024L11.3333 12.6667H13.3333L13.6667 14.6667H14.3333L14.6667 12.6667H16.6667L18.431 10.9024C18.5611 10.7722 18.5611 10.5611 18.431 10.431L18 10L18.6667 8.66668L17.3333 9.33334L16.9024 8.90238C16.7722 8.7722 16.5611 8.7722 16.431 8.90238L16.1118 9.22154Z" fill="#FF3131"/>
</g>
</g>
<defs>
<clipPath id="clip0_5138_555">
<rect width="28" height="20" fill="white"/>
</clipPath>
</defs>
</svg>

<svg xmlns="http://www.w3.org/2000/svg" width="28" height="20" fill="none" viewBox="0 0 28 20"><g clip-path="url(#a)"><path fill="#fff" d="M0 2C0 .8954.8954 0 2 0h24c1.1046 0 2 .8954 2 2v16c0 1.1046-.8954 2-2 2H2c-1.1046 0-2-.8954-2-2z"/><mask id="b" width="28" height="20" x="0" y="0" maskUnits="userSpaceOnUse" style="mask-type:luminance"><rect width="28" height="20" fill="#fff" rx="2"/></mask><g mask="url(#b)"><path fill="#f5f5f5" d="M26 19.5v.5H2v-.5zm1.5-1.5V2c0-.8284-.6716-1.5-1.5-1.5H2C1.1716.5.5 1.1716.5 2v16c0 .8284.6716 1.5 1.5 1.5v.5c-1.1046 0-2-.8954-2-2V2C0 .8954.8954 0 2 0h24c1.1046 0 2 .8954 2 2v16c0 1.1046-.8954 2-2 2v-.5c.8284 0 1.5-.6716 1.5-1.5"/><path fill="#ff3131" d="M20 0h8v20h-8z"/><path fill="#ff3131" fill-rule="evenodd" d="M0 20h8V0H0zM16.112 9.222c-.233.233-.627.022-.562-.301L16 6.667l-1.333.667-.667-2-.667 2L12 6.667l.451 2.254c.065.323-.329.534-.563.301l-.319-.319a.333.333 0 0 0-.471 0l-.431.431-1.333-.667L10 10l-.431.431a.333.333 0 0 0 0 .471l1.764 1.764h2l.333 2h.667l.333-2h2l1.764-1.764a.334.334 0 0 0 0-.471L18 10l.667-1.333-1.333.667-.431-.431a.333.333 0 0 0-.471 0z" clip-rule="evenodd"/></g></g><defs><clipPath id="a"><path fill="#fff" d="M0 0h28v20H0z"/></clipPath></defs></svg>
